www/assets/icons/read_more.svg

<svg xmlns="http://www.w3.org/2000/svg" width="24" height="24" viewBox="0 0 24 24" fill='currentColor'><path d="M22 7h-9v2h9zm0 8h-9v2h9zm0-4h-6v2h6zm-9 1L8 7v4H2v2h6v4z"/></svg>

<svg width="24" height="24" viewBox="0 0 24 24" xmlns="http://www.w3.org/2000/svg" fill='currentColor'><path d="M22 7H13V9H22V7Z"/><path d="M22 15H13V17H22V15Z"/><path d="M22 11H16V13H22V11Z"/><path d="M13 12L8 7V11H2V13H8V17L13 12Z"/></svg>
